X:61
T:Ashokan Farewell
C:Jay Unger
S:Jim Coon to CoMandoList TOW
M:3/4
L:1/8
Q:1/4=120
K:D
Ac|"D"d3 cBA|F4EF|"G"G3 FED|"Em"B,2D3B,|!
"D"A,2D2F2|A2d2f2|"G"f3 gf2|"A"e4Ac|!
"D"d3 cBA|F4EF|"G"G3 FED|"Em"B,2D3B,|!
"D"A,2D2F2|A2d2f2|"A"A2c2e2|"D"d4FG|!
A3 FD2|d4A2|"G"B3 cd2|"D"AFz2E2|!
F3 ED2|"G"B,3 A,A,2|"A"A,6|A4FE|!
"D"D2F2A2|"C"=c4d2|"G"B3 cd2|"D"AFz2D2|!
A,2D2F2|A2d2F2|"A"E3 DC2|"D"D6|!
W:Created with TablEdit http://www.tabledit.com/
